client/src/assets/icons/calendar-solid.svg

<svg width="25" height="25" viewBox="0 0 25 25" fill="none" xmlns="http://www.w3.org/2000/svg">
<g clip-path="url(#clip0_126_2471)">
<path d="M22.3958 4.16658H19.6181V6.24992C19.6181 6.45055 19.5785 6.64921 19.5018 6.83457C19.425 7.01993 19.3124 7.18835 19.1706 7.33022C19.0287 7.47209 18.8603 7.58462 18.6749 7.6614C18.4896 7.73818 18.2909 7.77769 18.0903 7.77769C17.8896 7.77769 17.691 7.73818 17.5056 7.6614C17.3203 7.58462 17.1518 7.47209 17.01 7.33022C16.8681 7.18835 16.7556 7.01993 16.6788 6.83457C16.602 6.64921 16.5625 6.45055 16.5625 6.24992V4.16658H8.47222V6.24992C8.47222 6.65511 8.31126 7.0437 8.02475 7.33022C7.73823 7.61673 7.34964 7.77769 6.94445 7.77769C6.53925 7.77769 6.15066 7.61673 5.86414 7.33022C5.57763 7.0437 5.41667 6.65511 5.41667 6.24992V4.16658H2.63889C2.47363 4.1647 2.30967 4.19598 2.1567 4.25857C2.00374 4.32116 1.86488 4.41379 1.74834 4.53098C1.6318 4.64817 1.53995 4.78753 1.4782 4.94084C1.41646 5.09415 1.38609 5.25828 1.38889 5.42353V20.9652C1.38613 21.1275 1.41538 21.2888 1.47496 21.4398C1.53455 21.5909 1.6233 21.7287 1.73615 21.8454C1.84901 21.9621 1.98375 22.0555 2.13269 22.1201C2.28162 22.1848 2.44183 22.2194 2.60417 22.2221H22.3958C22.5582 22.2194 22.7184 22.1848 22.8673 22.1201C23.0162 22.0555 23.151 21.9621 23.2638 21.8454C23.3767 21.7287 23.4655 21.5909 23.525 21.4398C23.5846 21.2888 23.6139 21.1275 23.6111 20.9652V5.42353C23.6139 5.26119 23.5846 5.09991 23.525 4.94888C23.4655 4.79785 23.3767 4.66004 23.2638 4.54331C23.151 4.42659 23.0162 4.33324 22.8673 4.2686C22.7184 4.20396 22.5582 4.1693 22.3958 4.16658ZM6.94445 18.0555H5.55556V16.6666H6.94445V18.0555ZM6.94445 14.5832H5.55556V13.1944H6.94445V14.5832ZM6.94445 11.111H5.55556V9.72214H6.94445V11.111ZM11.1111 18.0555H9.72222V16.6666H11.1111V18.0555ZM11.1111 14.5832H9.72222V13.1944H11.1111V14.5832ZM11.1111 11.111H9.72222V9.72214H11.1111V11.111ZM15.2778 18.0555H13.8889V16.6666H15.2778V18.0555ZM15.2778 14.5832H13.8889V13.1944H15.2778V14.5832ZM15.2778 11.111H13.8889V9.72214H15.2778V11.111ZM19.4444 18.0555H18.0556V16.6666H19.4444V18.0555ZM19.4444 14.5832H18.0556V13.1944H19.4444V14.5832ZM19.4444 11.111H18.0556V9.72214H19.4444V11.111Z" fill="black"/>
<path d="M6.94444 6.94447C7.12862 6.94447 7.30526 6.87131 7.43549 6.74107C7.56572 6.61084 7.63889 6.43421 7.63889 6.25003V2.08336C7.63889 1.89918 7.56572 1.72255 7.43549 1.59231C7.30526 1.46208 7.12862 1.38892 6.94444 1.38892C6.76027 1.38892 6.58363 1.46208 6.4534 1.59231C6.32316 1.72255 6.25 1.89918 6.25 2.08336V6.25003C6.25 6.43421 6.32316 6.61084 6.4534 6.74107C6.58363 6.87131 6.76027 6.94447 6.94444 6.94447Z" fill="black"/>
<path d="M18.0556 6.94447C18.2397 6.94447 18.4164 6.87131 18.5466 6.74107C18.6768 6.61084 18.75 6.43421 18.75 6.25003V2.08336C18.75 1.89918 18.6768 1.72255 18.5466 1.59231C18.4164 1.46208 18.2397 1.38892 18.0556 1.38892C17.8714 1.38892 17.6947 1.46208 17.5645 1.59231C17.4343 1.72255 17.3611 1.89918 17.3611 2.08336V6.25003C17.3611 6.43421 17.4343 6.61084 17.5645 6.74107C17.6947 6.87131 17.8714 6.94447 18.0556 6.94447Z" fill="black"/>
</g>
<defs>
<clipPath id="clip0_126_2471">
<rect width="25" height="25" fill="white"/>
</clipPath>
</defs>
</svg>

<svg xmlns="http://www.w3.org/2000/svg" width="25" height="25" fill="none" viewBox="0 0 25 25">
  <g clip-path="url(#a)">
    <path fill="#000" d="M22.396 4.167h-2.778V6.25a1.527 1.527 0 1 1-3.055 0V4.167h-8.09V6.25a1.528 1.528 0 0 1-3.056 0V4.167H2.639a1.236 1.236 0 0 0-1.25 1.257v15.541a1.236 1.236 0 0 0 1.215 1.257h19.792a1.234 1.234 0 0 0 1.215-1.257V5.424a1.237 1.237 0 0 0-1.215-1.257ZM6.944 18.055H5.556v-1.388h1.388v1.388Zm0-3.472H5.556v-1.389h1.388v1.39Zm0-3.472H5.556V9.722h1.388v1.389Zm4.167 6.944H9.722v-1.388h1.39v1.388Zm0-3.472H9.722v-1.389h1.39v1.39Zm0-3.472H9.722V9.722h1.39v1.389Zm4.167 6.944h-1.39v-1.388h1.39v1.388Zm0-3.472h-1.39v-1.389h1.39v1.39Zm0-3.472h-1.39V9.722h1.39v1.389Zm4.167 6.944h-1.39v-1.388h1.39v1.388Zm0-3.472h-1.39v-1.389h1.39v1.39Zm0-3.472h-1.39V9.722h1.39v1.389Z"/>
    <path fill="#000" d="M6.944 6.944a.694.694 0 0 0 .695-.694V2.083a.694.694 0 0 0-1.389 0V6.25a.694.694 0 0 0 .694.694Zm11.111 0a.695.695 0 0 0 .695-.694V2.083a.695.695 0 0 0-1.389 0V6.25a.694.694 0 0 0 .694.694Z"/>
  </g>
  <defs>
    <clipPath id="a">
      <path fill="#fff" d="M0 0h25v25H0z"/>
    </clipPath>
  </defs>
</svg>
